public/img/ui/apple.svg

<svg fill="none" height="40" viewBox="0 0 41 40" width="41" xmlns="http://www.w3.org/2000/svg" xmlns:xlink="http://www.w3.org/1999/xlink"><clipPath id="a"><path d="m.333252 0h40v40h-40z"/></clipPath><g clip-path="url(#a)" stroke="#ff2d20" stroke-linecap="round" stroke-linejoin="round" stroke-width="2"><path d="m8.97314 32.8906h6.64996"/><path d="m7.27319 29.2812h4.57001"/><path d="m5.97314 25.6602h2.28"/><path d="m35.4631 28.4083c-.98 2.96-4.34 9.53-8.25 9.59-2.26 0-3.58-1.44-6.14-1.44s-4.07 1.39-6.09 1.44c-3.87.12-7.57997-7.11-8.60997-10.06-.77-2.25-1.16-4.42-1.16-6.53 0-7.13 4.77-10.63 9.24997-10.71 2.17 0 4.94 1.58 6.14 1.58 1.14 0 4.26-1.89 7.11-1.66 3.01.23 5.3 1.42 6.81 3.59-2.7 1.64-4.04 3.86-4.02 6.81 0 .15-.28 4.92 4.96 7.38zm-15.1-17.83c-.17-2.22002.65-4.19002 2.06-5.78002 1.28-1.49 3.52-2.69 5.46-2.81.07.85.27 3.22-1.93 5.83-1.57 1.84-3.49 2.92002-5.59 2.76002z"/></g></svg>

<svg width="41" height="40" viewBox="0 0 41 40" fill="none" xmlns="http://www.w3.org/2000/svg">
<g clip-path="url(#clip0_834_1075)">
<path d="M8.97314 32.8906H15.6231" stroke="#FF2D20" stroke-width="2" stroke-linecap="round" stroke-linejoin="round"/>
<path d="M7.27319 29.2812H11.8432" stroke="#FF2D20" stroke-width="2" stroke-linecap="round" stroke-linejoin="round"/>
<path d="M5.97314 25.6602H8.25314" stroke="#FF2D20" stroke-width="2" stroke-linecap="round" stroke-linejoin="round"/>
<path d="M35.4631 28.4083C34.4831 31.3683 31.1231 37.9383 27.2131 37.9983C24.9531 37.9983 23.6331 36.5583 21.0731 36.5583C18.5131 36.5583 17.0031 37.9483 14.9831 37.9983C11.1131 38.1183 7.40313 30.8883 6.37313 27.9383C5.60313 25.6883 5.21313 23.5183 5.21313 21.4083C5.21313 14.2783 9.98313 10.7783 14.4631 10.6983C16.6331 10.6983 19.4031 12.2783 20.6031 12.2783C21.7431 12.2783 24.8631 10.3883 27.7131 10.6183C30.7231 10.8483 33.0131 12.0383 34.5231 14.2083C31.8231 15.8483 30.4831 18.0683 30.5031 21.0183C30.5031 21.1683 30.2231 25.9383 35.4631 28.3983V28.4083ZM20.3631 10.5783C20.1931 8.35828 21.0131 6.38828 22.4231 4.79828C23.7031 3.30828 25.9431 2.10828 27.8831 1.98828C27.9531 2.83828 28.1531 5.20828 25.9531 7.81828C24.3831 9.65828 22.4631 10.7383 20.3631 10.5783Z" stroke="#FF2D20" stroke-width="2" stroke-linecap="round" stroke-linejoin="round"/>
</g>
<defs>
<clipPath id="clip0_834_1075">
<rect width="40" height="40" fill="white" transform="translate(0.333252)"/>
</clipPath>
</defs>
</svg>
